!!!OTL: Xiashui bannao haozi 8.Qifu landanao shuban
!!!ARE: Asia, China,ÿSichuan, Chongqing
!! Hanzu minge gailun, 83(2)
!!!SCT: C1713G
!!!YEM: Copyright 1995, estate of Helmut Schaffrath.
**kern
*ICvox
*Ivox
*M2/4
*k[f#c#g#]
*A:
{8cc#
16cc#
16b
16a
16f#
8f#
=1
8.cc#
16a
8b}
{24ff#
24ee
24cc#
=2
16a
16f#
16a
16f#
16.cc#
32ee
32b
32a
16f#
=3
4f#
8.a}
{16b
=4
8a
32a
16.b
8cc#
16cc#
16b
=5
8.cc#
16a
8b}
{24ff#
24ee
24cc#
=6
8.cc#
16ee
16.b
32f#
16.a
32f#
=7
4f#
4a}
=8
{8cc#
16a
16b
8f#
16cc#
16cc#
=9
8.cc#
16a
8b}
{24ff#
24ee
24cc#
=10
8.cc#
16ee
16.cc#
32ee
32b
32a
16f#
=11
4f#
4a}
=12
{8ee
16cc#
16cc#
16a
16f#
16a
16f#
=13
8.cc#
16a
8b}
{24ff#
24ee
24cc#
=14
8.f#
16f#
16.ee
32cc#
32b
32a
16f#
=15
4f#
4a}
==
!!!AGN: Haozi, Chuanjiang chuanfu haozi
!!!AMT: simple duple
!!!AIN: vox
!!!EED: Helmut Schaffrath
!!!EEV: 1.0
*-
